; generated by PrusaSlicer 2.2.0+win64 on 2020-09-20 at 19:47:48 UTC

; 

; external perimeters extrusion width = 0.45mm
; perimeters extrusion width = 0.45mm
; infill extrusion width = 0.45mm
; solid infill extrusion width = 0.45mm
; top infill extrusion width = 0.40mm

M107
M190 S73 ; set bed temperature and wait for it to be reached
M104 S225 ; set temperature
G29 S1 ; load height map from file
;G28 ; home all axes
G1 Z5 F10000 ; lift nozzle
M200 D1.75      ; ** VOLUMETRIC experiment **
M572 D0 S1.62                                 ; Set extruder advance for ~450mm Bowden tube (0.1 to 0.25 is good) 2020-09-04 Capricorn bowden 1.6


M109 S225 ; set temperature and wait for it to be reached
G21 ; set units to millimeters
G90 ; use absolute coordinates
M83 ; use relative distances for extrusion
; Filament gcode
M109 S225
G1 E2 F240 ; extrude 2mm first
;M98 P"20-Trim_Nozzle_Filament.g"
;M98 P"21-Wipe_and_Prime_Nozzle.g"
;M300 ; beep
;M291 P"Nozzle wipe verification. Last chance to pause or cancel print!"  R"Resuming print in 5 seconds" S0 T5
;G4 S5 ; wait 5 seconds
;M300 ; beep
; temperature tower
;M104 S220
;
; pressure advance tower
;M572 D0 S1.4
;

G1 Z0.300 F10800.000
G1 E-6.54237 F1500.00000
G1 X65.365 Y52.576 F10800.000
G1 E6.54237 F1500.00000
M204 S333
G1 F1200.000
G1 X66.701 Y50.935 E0.24478
G1 X68.197 Y49.439 E0.24478
G1 X69.828 Y48.109 E0.24348
G1 X78.388 Y42.506 E1.18350
G1 X80.436 Y41.403 E0.26911
G1 X82.563 Y40.461 E0.26908
G1 X85.674 Y39.412 E0.37984
G1 X88.389 Y38.781 E0.32251
G1 X91.722 Y38.352 E0.38877
G1 X94.653 Y38.288 E0.33912
G1 X96.104 Y38.339 E0.16800
G1 X97.920 Y38.518 E0.21103
G1 X101.334 Y39.152 E0.40172
G1 X104.137 Y39.980 E0.33811
G1 X105.694 Y40.564 E0.19244
G1 X107.371 Y41.310 E0.21232
G1 X109.936 Y42.705 E0.33779
G1 X117.796 Y47.840 E1.08612
G1 X119.803 Y49.438 E0.29680
G1 X121.597 Y51.272 E0.29680
G1 X122.508 Y52.403 E0.16800
G1 X123.343 Y53.605 E0.16930
G1 X124.092 Y54.862 E0.16930
G1 X124.750 Y56.169 E0.16930
G1 X125.837 Y59.010 E0.35181
G1 X126.731 Y62.432 E0.40923
G1 X127.209 Y65.435 E0.35179
G1 X127.421 Y69.043 E0.41804
G1 X127.306 Y71.907 E0.33162
G1 X127.132 Y73.566 E0.19302
G1 X126.816 Y75.510 E0.22777
G1 X126.369 Y77.500 E0.23596
G1 X123.083 Y90.007 E1.49598
G1 X122.540 Y91.677 E0.20314
G1 X121.859 Y93.295 E0.20314
G1 X120.452 Y95.808 E0.33319
G1 X118.718 Y98.094 E0.33189
G1 X116.686 Y100.119 E0.33189
G1 X114.394 Y101.844 E0.33189
G1 X112.201 Y103.087 E0.29160
G1 X109.874 Y104.055 E0.29160
G1 X107.446 Y104.734 E0.29160
G1 X104.954 Y105.114 E0.29160
G1 X103.167 Y105.199 E0.20704
G1 X85.441 Y105.198 E2.05061
G1 X83.587 Y105.092 E0.21485
G1 X81.739 Y104.818 E0.21615
G1 X79.416 Y104.226 E0.27729
G1 X77.177 Y103.370 E0.27729
G1 X75.051 Y102.262 E0.27729
G1 X73.068 Y100.917 E0.27729
G1 X71.252 Y99.352 E0.27729
G1 X69.629 Y97.588 E0.27729
G1 X68.220 Y95.649 E0.27729
G1 X67.044 Y93.560 E0.27729
G1 X66.057 Y91.180 E0.29810
G1 X62.210 Y79.493 E1.42341
G1 X61.629 Y77.489 E0.24136
G1 X61.170 Y75.439 E0.24303
G1 X60.696 Y71.925 E0.41018
G1 X60.579 Y69.156 E0.32060
G1 X60.774 Y65.607 E0.41125
G1 X61.184 Y62.847 E0.32279
G1 X61.683 Y60.661 E0.25939
G1 X62.396 Y58.317 E0.28338
G1 X63.212 Y56.252 E0.25696
G1 X64.203 Y54.344 E0.24868
G1 X65.332 Y52.626 E0.23784
M204 S266
G1 X65.654 Y52.838 F10800.000
M204 S333
G1 F1200.000
G1 X66.992 Y51.188 E0.24578
G1 X68.467 Y49.714 E0.24120
G1 X70.076 Y48.405 E0.23992
G1 X78.583 Y42.839 E1.17610
G1 X80.610 Y41.747 E0.26631
G1 X82.702 Y40.821 E0.26467
G1 X85.783 Y39.782 E0.37615
G1 X88.466 Y39.159 E0.31870
G1 X91.756 Y38.736 E0.38370
G1 X94.653 Y38.673 E0.33523
G1 X96.080 Y38.724 E0.16514
G1 X97.876 Y38.901 E0.20888
G1 X101.247 Y39.528 E0.39662
G1 X104.018 Y40.347 E0.33423
G1 X105.555 Y40.924 E0.18996
G1 X107.209 Y41.660 E0.20949
G1 X109.736 Y43.034 E0.33270
G1 X117.571 Y48.153 E1.08269
G1 X119.550 Y49.730 E0.29274
G1 X121.311 Y51.531 E0.29145
G1 X122.212 Y52.652 E0.16643
G1 X123.032 Y53.835 E0.16643
G1 X123.767 Y55.072 E0.16643
G1 X124.412 Y56.357 E0.16643
G1 X125.474 Y59.144 E0.34497
G1 X126.361 Y62.547 E0.40692
G1 X126.828 Y65.496 E0.34540
G1 X127.035 Y69.072 E0.41436
G1 X126.920 Y71.889 E0.32611
G1 X126.748 Y73.522 E0.18999
G1 X126.432 Y75.464 E0.22769
G1 X125.994 Y77.409 E0.23065
G1 X122.714 Y89.895 E1.49342
G1 X122.184 Y91.529 E0.19867
G1 X121.523 Y93.102 E0.19738
G1 X120.144 Y95.574 E0.32750
G1 X118.435 Y97.831 E0.32750
G1 X116.430 Y99.830 E0.32750
G1 X114.168 Y101.531 E0.32750
G1 X112.014 Y102.750 E0.28630
G1 X109.728 Y103.698 E0.28630
G1 X107.344 Y104.362 E0.28630
G1 X104.897 Y104.732 E0.28630
G1 X103.159 Y104.814 E0.20124
G1 X85.443 Y104.812 E2.04945
G1 X83.607 Y104.706 E0.21285
G1 X81.787 Y104.435 E0.21285
G1 X79.498 Y103.847 E0.27342
G1 X77.302 Y103.004 E0.27213
G1 X75.218 Y101.912 E0.27213
G1 X73.274 Y100.588 E0.27213
G1 X71.495 Y99.049 E0.27213
G1 X69.898 Y97.307 E0.27342
G1 X68.519 Y95.401 E0.27213
G1 X67.370 Y93.349 E0.27213
G1 X66.417 Y91.041 E0.28887
G1 X62.573 Y79.362 E1.42230
G1 X62.001 Y77.387 E0.23790
G1 X61.548 Y75.361 E0.24023
G1 X61.079 Y71.878 E0.40657
G1 X60.964 Y69.150 E0.31579
G1 X61.159 Y65.632 E0.40763
G1 X61.568 Y62.892 E0.32052
G1 X62.057 Y60.753 E0.25386
G1 X62.763 Y58.436 E0.28019
G1 X63.565 Y56.407 E0.25235
G1 X64.542 Y54.527 E0.24507
G1 X65.621 Y52.888 E0.22708
M204 S266
G1 E-6.54237 F1500.00000
G1 X81.295 Y85.136 F10800.000
G1 E6.54237 F1500.00000
M204 S333
G1 F1200.000
G1 X81.272 Y80.339 E0.55496
G1 X80.442 Y79.568 E0.13098
G1 X79.589 Y78.354 E0.17165
G1 X79.015 Y77.384 E0.13049
G1 X78.541 Y76.451 E0.12103
G1 X78.120 Y75.481 E0.12234
G1 X77.752 Y74.458 E0.12575
G1 X77.452 Y73.426 E0.12431
G1 X77.214 Y72.355 E0.12692
G1 X77.045 Y71.281 E0.12579
G1 X76.946 Y70.198 E0.12586
G1 X76.916 Y69.110 E0.12588
G1 X76.955 Y68.024 E0.12574
G1 X77.061 Y66.955 E0.12426
G1 X77.233 Y65.897 E0.12397
G1 X77.462 Y64.890 E0.11944
G1 X77.750 Y63.903 E0.11904
G1 X78.112 Y62.902 E0.12305
G1 X78.670 Y62.010 E0.12176
G1 X79.699 Y61.105 E0.15850
G1 X80.745 Y60.609 E0.13392
G1 X81.895 Y60.391 E0.13542
G1 X82.926 Y60.466 E0.11957
G1 X83.234 Y60.558 E0.03729
G1 X83.818 Y59.864 E0.10493
G1 X84.440 Y59.226 E0.10309
G1 X84.928 Y58.796 E0.07524
G1 X85.149 Y58.202 E0.07334
G1 X85.857 Y57.216 E0.14045
G1 X86.647 Y56.580 E0.11728
G1 X87.631 Y56.069 E0.12828
G1 X88.501 Y55.681 E0.11022
G1 X89.401 Y55.348 E0.11102
G1 X90.333 Y55.073 E0.11237
G1 X91.259 Y54.864 E0.10983
G1 X92.224 Y54.712 E0.11303
G1 X93.447 Y54.609 E0.14194
G1 X94.003 Y54.653 E0.06456
G1 X94.583 Y54.607 E0.06730
G1 X95.758 Y54.710 E0.13651
G1 X96.695 Y54.855 E0.10962
G1 X97.622 Y55.061 E0.10988
G1 X98.647 Y55.364 E0.12364
G1 X99.460 Y55.665 E0.10032
G1 X100.245 Y56.009 E0.09911
G1 X101.451 Y56.643 E0.15758
G1 X102.194 Y57.272 E0.11263
G1 X102.771 Y58.048 E0.11191
G1 X103.054 Y58.781 E0.09092
G1 X103.569 Y59.236 E0.07951
G1 X104.192 Y59.875 E0.10318
G1 X104.778 Y60.576 E0.10574
G1 X105.309 Y60.423 E0.06382
G1 X106.294 Y60.403 E0.11403
G1 X107.322 Y60.638 E0.12200
G1 X108.449 Y61.203 E0.14585
G1 X109.297 Y61.972 E0.13239
G1 X109.905 Y62.939 E0.13219
G1 X110.249 Y63.900 E0.11807
G1 X110.547 Y64.928 E0.12385
G1 X110.782 Y65.975 E0.12413
G1 X110.950 Y67.035 E0.12409
G1 X111.050 Y68.093 E0.12299
G1 X111.085 Y69.208 E0.12903
G1 X111.049 Y70.283 E0.12452
G1 X110.946 Y71.350 E0.12390
G1 X110.782 Y72.379 E0.12059
G1 X110.556 Y73.397 E0.12062
G1 X110.258 Y74.427 E0.12404
G1 X109.892 Y75.450 E0.12577
G1 X109.465 Y76.438 E0.12443
G1 X108.965 Y77.420 E0.12746
G1 X108.397 Y78.377 E0.12874
G1 X107.815 Y79.229 E0.11943
G1 X107.510 Y79.616 E0.05702
G1 X107.510 Y84.856 E0.60623
G1 X107.340 Y85.773 E0.10783
G1 X106.762 Y86.943 E0.15099
G1 X105.881 Y87.889 E0.14950
G1 X104.818 Y88.543 E0.14443
G1 X103.619 Y88.857 E0.14336
G1 X94.238 Y88.863 E1.08531
G1 X94.005 Y88.836 E0.02707
G1 X93.772 Y88.863 E0.02708
G1 X85.274 Y88.863 E0.98317
G1 X84.412 Y88.712 E0.10124
G1 X82.983 Y87.969 E0.18638
G1 X82.207 Y87.195 E0.12671
G1 X81.633 Y86.284 E0.12455
G1 X81.312 Y85.193 E0.13153
M204 S266
G1 E-6.54237 F1500.00000
G1 X80.525 Y85.253 F10800.000
G1 X81.700 Y86.428
G1 X82.495 Y86.938
G1 E6.54237 F1500.00000
M204 S333
G1 F1200.000
G1 X81.975 Y86.103 E0.11389
G1 X81.681 Y85.107 E0.12012
G1 X81.657 Y80.095 E0.57973
G1 X81.390 Y79.935 E0.03604
G1 X80.747 Y79.331 E0.10203
G1 X79.909 Y78.139 E0.16855
G1 X79.350 Y77.193 E0.12714
G1 X78.887 Y76.282 E0.11822
G1 X78.481 Y75.344 E0.11821
G1 X78.120 Y74.344 E0.12293
G1 X77.824 Y73.324 E0.12288
G1 X77.594 Y72.289 E0.12268
G1 X77.429 Y71.239 E0.12295
G1 X77.331 Y70.180 E0.12302
G1 X77.301 Y69.117 E0.12304
G1 X77.339 Y68.056 E0.12292
G1 X77.442 Y67.011 E0.12145
G1 X77.611 Y65.977 E0.12120
G1 X77.837 Y64.982 E0.11806
G1 X78.119 Y64.017 E0.11629
G1 X78.468 Y63.054 E0.11849
G1 X78.980 Y62.240 E0.11126
G1 X79.931 Y61.415 E0.14560
G1 X80.885 Y60.969 E0.12183
G1 X81.939 Y60.775 E0.12398
G1 X82.870 Y60.849 E0.10803
G1 X83.361 Y61.008 E0.05974
G1 X84.099 Y60.128 E0.13292
G1 X84.711 Y59.501 E0.10139
G1 X85.259 Y59.019 E0.08437
G1 X85.479 Y58.404 E0.07560
G1 X86.155 Y57.462 E0.13409
G1 X86.841 Y56.914 E0.10165
G1 X87.804 Y56.414 E0.12547
G1 X88.652 Y56.036 E0.10746
G1 X89.529 Y55.712 E0.10810
G1 X90.424 Y55.447 E0.10799
G1 X91.325 Y55.244 E0.10689
G1 X92.263 Y55.096 E0.10989
G1 X93.463 Y54.995 E0.13921
G1 X94.003 Y55.041 E0.06279
G1 X94.566 Y54.992 E0.06536
G1 X95.718 Y55.094 E0.13379
G1 X96.630 Y55.235 E0.10669
G1 X97.519 Y55.432 E0.10540
G1 X98.531 Y55.732 E0.12212
G1 X99.321 Y56.025 E0.09741
G1 X100.084 Y56.359 E0.09636
G1 X101.253 Y56.974 E0.15280
G1 X101.898 Y57.520 E0.09773
G1 X102.445 Y58.255 E0.10609
G1 X102.726 Y59.006 E0.09274
G1 X103.298 Y59.510 E0.08824
G1 X103.910 Y60.138 E0.10145
G1 X104.648 Y61.021 E0.13302
G1 X105.345 Y60.808 E0.08430
G1 X106.278 Y60.789 E0.10802
G1 X107.172 Y60.994 E0.10606
G1 X108.212 Y61.508 E0.13429
G1 X108.986 Y62.201 E0.12018
G1 X109.550 Y63.089 E0.12165
G1 X109.880 Y64.013 E0.11353
G1 X110.173 Y65.018 E0.12108
G1 X110.402 Y66.042 E0.12133
G1 X110.566 Y67.077 E0.12130
G1 X110.665 Y68.111 E0.12014
G1 X110.699 Y69.213 E0.12758
G1 X110.664 Y70.264 E0.12165
G1 X110.563 Y71.307 E0.12112
G1 X110.404 Y72.301 E0.11651
G1 X110.183 Y73.296 E0.11788
G1 X109.893 Y74.303 E0.12123
G1 X109.535 Y75.303 E0.12295
G1 X109.119 Y76.269 E0.12159
G1 X108.630 Y77.228 E0.12458
G1 X108.075 Y78.164 E0.12591
G1 X107.501 Y79.006 E0.11792
G1 X107.124 Y79.482 E0.07016
G1 X107.124 Y84.838 E0.61965
G1 X106.966 Y85.674 E0.09843
G1 X106.430 Y86.744 E0.13846
G1 X105.619 Y87.605 E0.13679
G1 X104.643 Y88.198 E0.13216
G1 X103.548 Y88.477 E0.13073
G1 X94.250 Y88.477 E1.07567
G1 X94.005 Y88.448 E0.02851
G1 X93.760 Y88.477 E0.02851
G1 X85.291 Y88.477 E0.97976
G1 X84.509 Y88.338 E0.09196
G1 X83.234 Y87.675 E0.16619
G1 X82.538 Y86.980 E0.11375
M204 S266
G1 X82.809 Y86.712 F10800.000
M204 S333
G1 F1200.000
G1 X82.335 Y85.964 E0.10240
G1 X82.066 Y85.076 E0.10739
G1 X82.041 Y79.868 E0.60248
G1 X81.634 Y79.636 E0.05423
G1 X81.051 Y79.092 E0.09224
G1 X80.229 Y77.923 E0.16528
G1 X79.685 Y77.002 E0.12377
G1 X79.239 Y76.123 E0.11408
G1 X78.842 Y75.207 E0.11543
G1 X78.485 Y74.219 E0.12151
G1 X78.196 Y73.223 E0.12004
G1 X77.973 Y72.223 E0.11846
G1 X77.812 Y71.198 E0.12011
G1 X77.717 Y70.163 E0.12018
G1 X77.687 Y69.125 E0.12020
G1 X77.723 Y68.087 E0.12009
G1 X77.824 Y67.067 E0.11864
G1 X77.988 Y66.056 E0.11843
G1 X78.209 Y65.084 E0.11534
G1 X78.484 Y64.141 E0.11367
G1 X78.805 Y63.241 E0.11051
G1 X79.291 Y62.471 E0.10533
G1 X80.160 Y61.726 E0.13244
G1 X81.022 Y61.330 E0.10974
G1 X81.980 Y61.159 E0.11258
G1 X82.811 Y61.230 E0.09650
G1 X83.511 Y61.469 E0.08553
G1 X83.835 Y61.028 E0.06329
G1 X84.379 Y60.394 E0.09665
G1 X84.982 Y59.776 E0.09990
G1 X85.591 Y59.241 E0.09378
G1 X85.810 Y58.603 E0.07803
G1 X86.418 Y57.745 E0.12160
G1 X87.037 Y57.247 E0.09188
G1 X87.976 Y56.758 E0.12253
G1 X88.803 Y56.391 E0.10470
G1 X89.644 Y56.080 E0.10374
G1 X90.515 Y55.822 E0.10507
G1 X91.392 Y55.624 E0.10395
G1 X92.303 Y55.480 E0.10672
G1 X93.478 Y55.381 E0.13640
G1 X94.004 Y55.428 E0.06108
G1 X94.550 Y55.378 E0.06349
G1 X95.678 Y55.477 E0.13099
G1 X96.564 Y55.615 E0.10374
G1 X97.429 Y55.807 E0.10248
G1 X98.404 Y56.096 E0.11759
G1 X99.171 Y56.380 E0.09470
G1 X99.922 Y56.710 E0.09490
G1 X101.054 Y57.305 E0.14788
G1 X101.630 Y57.798 E0.08768
G1 X102.117 Y58.460 E0.09519
G1 X102.396 Y59.230 E0.09472
G1 X103.028 Y59.785 E0.09720
G1 X103.630 Y60.404 E0.09997
G1 X104.166 Y61.030 E0.09536
G1 X104.494 Y61.476 E0.06404
G1 X105.382 Y61.193 E0.10779
G1 X106.262 Y61.175 E0.10188
G1 X107.023 Y61.350 E0.09033
G1 X107.976 Y61.814 E0.12255
G1 X108.709 Y62.471 E0.11388
G1 X109.194 Y63.239 E0.10510
G1 X109.512 Y64.127 E0.10910
G1 X109.798 Y65.109 E0.11830
G1 X110.022 Y66.108 E0.11853
G1 X110.183 Y67.120 E0.11851
G1 X110.280 Y68.129 E0.11729
G1 X110.313 Y69.219 E0.12613
G1 X110.278 Y70.245 E0.11878
G1 X110.180 Y71.263 E0.11834
G1 X110.024 Y72.235 E0.11378
G1 X109.811 Y73.195 E0.11381
G1 X109.528 Y74.179 E0.11844
G1 X109.178 Y75.157 E0.12013
G1 X108.772 Y76.099 E0.11875
G1 X108.296 Y77.037 E0.12170
G1 X107.753 Y77.952 E0.12306
G1 X107.186 Y78.783 E0.11640
G1 X106.738 Y79.347 E0.08330
G1 X106.738 Y84.819 E0.63303
G1 X106.593 Y85.575 E0.08903
G1 X106.129 Y86.502 E0.11993
G1 X105.393 Y87.291 E0.12477
G1 X104.517 Y87.833 E0.11922
G1 X103.523 Y88.092 E0.11882
G1 X94.263 Y88.092 E1.07129
G1 X94.005 Y88.059 E0.03003
G1 X93.747 Y88.092 E0.03003
G1 X85.309 Y88.092 E0.97623
G1 X84.606 Y87.964 E0.08260
G1 X83.484 Y87.380 E0.14634
G1 X82.852 Y86.754 E0.10291
M204 S266
G1 X83.121 Y86.485 F10800.000
M204 S333
G1 F1200.000
G1 X82.695 Y85.823 E0.09098
G1 X82.452 Y85.045 E0.09437
G1 X82.426 Y79.638 E0.62543
G1 X81.877 Y79.335 E0.07252
G1 X81.354 Y78.853 E0.08227
G1 X80.549 Y77.708 E0.16193
G1 X80.021 Y76.812 E0.12039
G1 X79.585 Y75.953 E0.11131
G1 X79.202 Y75.071 E0.11133
G1 X78.854 Y74.106 E0.11866
G1 X78.568 Y73.121 E0.11861
G1 X78.353 Y72.157 E0.11425
G1 X78.196 Y71.156 E0.11728
G1 X78.102 Y70.146 E0.11734
G1 X78.072 Y69.132 E0.11736
G1 X78.108 Y68.119 E0.11727
G1 X78.205 Y67.122 E0.11583
G1 X78.366 Y66.136 E0.11566
G1 X78.581 Y65.186 E0.11262
G1 X78.849 Y64.265 E0.11099
G1 X79.161 Y63.392 E0.10728
G1 X79.600 Y62.702 E0.09454
G1 X80.345 Y62.065 E0.11343
G1 X81.160 Y61.691 E0.10368
G1 X82.019 Y61.543 E0.10086
G1 X82.750 Y61.612 E0.08497
G1 X83.652 Y61.928 E0.11058
G1 X84.133 Y61.273 E0.09403
G1 X84.659 Y60.658 E0.09361
G1 X85.253 Y60.050 E0.09829
G1 X85.925 Y59.461 E0.10350
G1 X86.144 Y58.799 E0.08059
G1 X86.683 Y58.027 E0.10898
G1 X87.232 Y57.580 E0.08191
G1 X88.149 Y57.103 E0.11952
G1 X88.954 Y56.745 E0.10191
G1 X89.772 Y56.444 E0.10084
G1 X90.607 Y56.197 E0.10073
G1 X91.458 Y56.003 E0.10102
G1 X92.342 Y55.863 E0.10354
G1 X93.492 Y55.767 E0.13352
G1 X94.004 Y55.815 E0.05945
G1 X94.535 Y55.764 E0.06169
G1 X95.638 Y55.861 E0.12811
G1 X96.499 Y55.995 E0.10078
G1 X97.338 Y56.182 E0.09956
G1 X98.276 Y56.460 E0.11307
G1 X99.032 Y56.740 E0.09329
G1 X99.761 Y57.060 E0.09212
G1 X100.854 Y57.636 E0.14288
G1 X101.360 Y58.074 E0.07743
G1 X101.788 Y58.663 E0.08428
G1 X102.065 Y59.453 E0.09681
G1 X102.757 Y60.059 E0.10641
G1 X103.350 Y60.668 E0.09834
G1 X103.868 Y61.275 E0.09234
G1 X104.350 Y61.931 E0.09418
G1 X105.420 Y61.578 E0.13033
G1 X106.246 Y61.561 E0.09562
G1 X106.876 Y61.707 E0.07483
G1 X107.742 Y62.122 E0.11101
G1 X108.399 Y62.702 E0.10144
G1 X108.838 Y63.390 E0.09443
G1 X109.143 Y64.240 E0.10453
G1 X109.423 Y65.199 E0.11553
G1 X109.642 Y66.175 E0.11574
G1 X109.800 Y67.163 E0.11571
G1 X109.894 Y68.147 E0.11442
G1 X109.928 Y69.225 E0.12467
G1 X109.893 Y70.226 E0.11589
G1 X109.796 Y71.220 E0.11555
G1 X109.645 Y72.168 E0.11106
G1 X109.439 Y73.094 E0.10978
G1 X109.163 Y74.055 E0.11564
G1 X108.822 Y75.010 E0.11731
G1 X108.426 Y75.930 E0.11591
G1 X107.961 Y76.846 E0.11881
G1 X107.431 Y77.740 E0.12020
G1 X106.871 Y78.560 E0.11486
G1 X106.353 Y79.213 E0.09643
G1 X106.353 Y84.800 E0.64638
G1 X106.220 Y85.473 E0.07936
G1 X105.799 Y86.302 E0.10753
G1 X105.131 Y87.008 E0.11243
G1 X104.389 Y87.468 E0.10096
G1 X103.497 Y87.706 E0.10682
G1 X94.276 Y87.706 E1.06675
G1 X94.005 Y87.670 E0.03163
G1 X93.734 Y87.706 E0.03163
G1 X85.327 Y87.706 E0.97256
