; generated by PrusaSlicer 2.2.0+win64 on 2020-09-20 at 06:07:58 UTC

; 

; external perimeters extrusion width = 0.45mm
; perimeters extrusion width = 0.45mm
; infill extrusion width = 0.45mm
; solid infill extrusion width = 0.45mm
; top infill extrusion width = 0.40mm

M107
M190 S73 ; set bed temperature and wait for it to be reached
M104 S225 ; set temperature
G29 S1 ; load height map from file
;G28 ; home all axes
G1 Z5 F10000 ; lift nozzle
M200 D1.75      ; ** VOLUMETRIC experiment **
M572 D0 S1.62                                 ; Set extruder advance for ~450mm Bowden tube (0.1 to 0.25 is good) 2020-09-04 Capricorn bowden 1.6


M109 S225 ; set temperature and wait for it to be reached
G21 ; set units to millimeters
G90 ; use absolute coordinates
M83 ; use relative distances for extrusion
; Filament gcode
M109 S225
G1 E2 F240 ; extrude 2mm first
;M98 P"20-Trim_Nozzle_Filament.g"
;M98 P"21-Wipe_and_Prime_Nozzle.g"
;M300 ; beep
;M291 P"Nozzle wipe verification. Last chance to pause or cancel print!"  R"Resuming print in 5 seconds" S0 T5
;G4 S5 ; wait 5 seconds
;M300 ; beep
; temperature tower
;M104 S220
;
; pressure advance tower
;M572 D0 S1.4
;

G1 Z0.300 F10800.000
G1 E-6.54237 F1500.00000
G1 X66.134 Y52.602 F10800.000
G1 E6.54237 F1500.00000
M204 S333
G1 F1200.000
G1 X72.236 Y45.449 E1.08766
G1 X73.479 Y44.146 E0.20835
G1 X74.840 Y42.949 E0.20965
G1 X76.866 Y41.508 E0.28770
G1 X79.182 Y40.237 E0.30563
G1 X81.562 Y39.169 E0.30169
G1 X83.878 Y38.341 E0.28463
G1 X86.274 Y37.677 E0.28765
G1 X89.464 Y37.079 E0.37538
G1 X92.062 Y36.825 E0.30196
G1 X94.685 Y36.790 E0.30348
G1 X96.306 Y36.849 E0.18767
G1 X98.409 Y37.063 E0.24453
G1 X100.376 Y37.384 E0.23056
G1 X102.605 Y37.898 E0.26465
G1 X104.435 Y38.441 E0.22084
G1 X106.549 Y39.214 E0.26040
G1 X108.423 Y40.044 E0.23714
G1 X110.551 Y41.161 E0.27803
G1 X112.805 Y42.689 E0.31500
G1 X114.839 Y44.499 E0.31500
G1 X122.054 Y52.831 E1.27510
G1 X123.655 Y55.117 E0.32279
G1 X124.936 Y57.596 E0.32279
G1 X125.916 Y60.279 E0.33051
G1 X126.797 Y63.763 E0.41574
G1 X127.225 Y66.603 E0.33227
G1 X127.421 Y70.200 E0.41673
G1 X127.223 Y73.795 E0.41646
G1 X126.792 Y76.642 E0.33320
G1 X126.366 Y78.522 E0.22294
G1 X123.074 Y91.051 E1.49859
G1 X122.517 Y92.751 E0.20704
G1 X121.815 Y94.398 E0.20704
G1 X121.143 Y95.685 E0.16800
G1 X120.383 Y96.923 E0.16800
G1 X119.539 Y98.104 E0.16800
G1 X118.614 Y99.223 E0.16800
G1 X117.613 Y100.275 E0.16800
G1 X116.540 Y101.255 E0.16800
G1 X115.403 Y102.157 E0.16800
G1 X114.204 Y102.977 E0.16800
G1 X112.018 Y104.187 E0.28900
G1 X109.703 Y105.125 E0.28900
G1 X107.292 Y105.778 E0.28900
G1 X104.831 Y106.136 E0.28770
G1 X103.144 Y106.211 E0.19533
G1 X84.644 Y106.209 E2.14026
G1 X82.733 Y106.095 E0.22136
G1 X80.842 Y105.805 E0.22136
G1 X78.491 Y105.189 E0.28119
G1 X76.228 Y104.302 E0.28119
G1 X74.084 Y103.157 E0.28119
G1 X72.088 Y101.769 E0.28119
G1 X70.268 Y100.158 E0.28119
G1 X68.656 Y98.354 E0.27989
G1 X67.259 Y96.365 E0.28119
G1 X66.104 Y94.226 E0.28119
G1 X65.429 Y92.605 E0.20314
G1 X64.893 Y90.933 E0.20314
G1 X61.615 Y78.446 E1.49349
G1 X61.065 Y75.851 E0.30685
G1 X60.674 Y72.690 E0.36855
G1 X60.580 Y69.942 E0.31800
G1 X60.784 Y66.517 E0.39695
G1 X61.208 Y63.736 E0.32539
G1 X61.773 Y61.346 E0.28412
G1 X62.717 Y58.447 E0.35278
G1 X63.629 Y56.401 E0.25909
G1 X64.749 Y54.475 E0.25779
G1 X66.098 Y52.650 E0.26255
M204 S266
G1 E-6.54237 F1500.00000
G1 X77.350 Y53.561 F10800.000
G1 X64.662 Y55.337
G1 E6.54237 F1500.00000
M204 S333
G1 F1200.000
G1 X66.239 Y53.081 E0.31849
G1 X73.316 Y44.850 E1.25572
G1 X75.319 Y43.061 E0.31077
G1 X77.550 Y41.545 E0.31205
G1 X79.667 Y40.426 E0.27702
G1 X81.545 Y39.593 E0.23766
G1 X83.534 Y38.857 E0.24527
G1 X85.420 Y38.289 E0.22785
G1 X87.610 Y37.778 E0.26015
G1 X89.577 Y37.452 E0.23065
G1 X91.712 Y37.234 E0.24831
G1 X93.335 Y37.175 E0.18785
G1 X95.896 Y37.209 E0.29635
G1 X98.386 Y37.449 E0.28940
G1 X101.506 Y38.023 E0.36694
G1 X103.875 Y38.666 E0.28401
G1 X106.452 Y39.591 E0.31681
G1 X109.251 Y40.890 E0.35694
G1 X111.098 Y41.950 E0.24636
G1 X112.825 Y43.197 E0.24636
G1 X114.140 Y44.352 E0.20253
G1 X115.345 Y45.607 E0.20124
G1 X121.517 Y52.785 E1.09520
G1 X122.895 Y54.636 E0.26697
G1 X124.010 Y56.542 E0.25538
G1 X124.912 Y58.556 E0.25538
G1 X125.850 Y61.431 E0.34987
G1 X126.409 Y63.788 E0.28019
G1 X126.831 Y66.541 E0.32220
G1 X127.034 Y69.938 E0.39373
G1 X126.942 Y72.650 E0.31381
G1 X126.555 Y75.784 E0.36537
G1 X126.010 Y78.356 E0.30414
G1 X122.738 Y90.820 E1.49084
G1 X122.223 Y92.435 E0.19609
G1 X121.571 Y94.012 E0.19738
G1 X120.442 Y96.114 E0.27599
G1 X119.069 Y98.079 E0.27728
G1 X117.483 Y99.861 E0.27599
G1 X115.700 Y101.445 E0.27599
G1 X113.743 Y102.811 E0.27599
G1 X111.641 Y103.938 E0.27599
G1 X109.421 Y104.812 E0.27599
G1 X107.103 Y105.423 E0.27728
G1 X105.241 Y105.710 E0.21800
G1 X103.360 Y105.823 E0.21800
G1 X84.858 Y105.825 E2.14039
G1 X83.231 Y105.755 E0.18835
G1 X80.804 Y105.404 E0.28372
G1 X78.436 Y104.765 E0.28372
G1 X76.163 Y103.846 E0.28372
G1 X74.016 Y102.660 E0.28372
G1 X72.828 Y101.848 E0.16643
G1 X71.710 Y100.961 E0.16514
G1 X69.672 Y98.964 E0.33008
G1 X68.763 Y97.863 E0.16514
G1 X67.927 Y96.693 E0.16643
G1 X66.522 Y94.209 E0.33008
G1 X65.838 Y92.598 E0.20253
G1 X65.294 Y90.934 E0.20253
G1 X62.010 Y78.436 E1.49486
G1 X61.591 Y76.591 E0.21892
G1 X61.162 Y73.771 E0.32993
G1 X60.964 Y70.217 E0.41177
G1 X61.159 Y66.643 E0.41408
G1 X61.577 Y63.859 E0.32568
G1 X62.447 Y60.411 E0.41138
G1 X63.407 Y57.775 E0.32455
G1 X64.634 Y55.391 E0.31026
M204 S266
G1 E-6.54237 F1500.00000
G1 X80.692 Y86.877 F10800.000
G1 E6.54237 F1500.00000
M204 S333
G1 F1200.000
G1 X80.502 Y85.994 E0.10454
G1 X80.492 Y80.629 E0.62063
G1 X80.185 Y80.241 E0.05723
G1 X79.584 Y79.358 E0.12352
G1 X79.024 Y78.412 E0.12727
G1 X78.531 Y77.441 E0.12594
G1 X78.110 Y76.465 E0.12294
G1 X77.751 Y75.466 E0.12283
G1 X77.455 Y74.448 E0.12271
G1 X77.223 Y73.415 E0.12248
G1 X77.052 Y72.345 E0.12528
G1 X76.949 Y71.265 E0.12553
G1 X76.915 Y70.180 E0.12560
G1 X76.950 Y69.107 E0.12416
G1 X77.051 Y68.039 E0.12418
G1 X77.222 Y66.967 E0.12558
G1 X77.459 Y65.916 E0.12458
G1 X77.767 Y64.863 E0.12699
G1 X78.112 Y63.914 E0.11673
G1 X78.626 Y63.074 E0.11389
G1 X79.735 Y62.093 E0.17141
G1 X80.649 Y61.659 E0.11694
G1 X81.616 Y61.424 E0.11517
G1 X82.764 Y61.447 E0.13291
G1 X83.230 Y61.582 E0.05614
G1 X83.799 Y60.900 E0.10271
G1 X83.671 Y60.638 E0.03377
G1 X83.453 Y59.817 E0.09819
G1 X83.448 Y58.538 E0.14805
G1 X83.908 Y57.056 E0.17943
G1 X84.531 Y56.157 E0.12657
G1 X85.343 Y55.458 E0.12397
G1 X86.615 Y54.784 E0.16644
G1 X87.632 Y54.336 E0.12867
G1 X88.693 Y53.950 E0.13061
G1 X89.786 Y53.633 E0.13162
G1 X90.784 Y53.410 E0.11833
G1 X91.794 Y53.248 E0.11831
G1 X92.882 Y53.141 E0.12646
G1 X93.736 Y53.121 E0.09884
G1 X94.019 Y53.158 E0.03304
G1 X94.343 Y53.117 E0.03779
G1 X95.030 Y53.136 E0.07945
G1 X96.103 Y53.235 E0.12470
G1 X97.163 Y53.400 E0.12404
G1 X98.210 Y53.632 E0.12406
G1 X99.242 Y53.929 E0.12423
G1 X100.278 Y54.300 E0.12734
G1 X101.281 Y54.734 E0.12647
G1 X103.000 Y55.704 E0.22835
G1 X103.602 Y56.313 E0.09904
G1 X104.100 Y57.070 E0.10478
G1 X104.560 Y58.604 E0.18532
G1 X104.548 Y59.812 E0.13972
G1 X104.350 Y60.582 E0.09205
G1 X104.193 Y60.906 E0.04159
G1 X104.773 Y61.569 E0.10193
G1 X105.133 Y61.464 E0.04345
G1 X106.320 Y61.418 E0.13737
G1 X107.290 Y61.636 E0.11506
G1 X108.307 Y62.120 E0.13031
G1 X109.339 Y63.033 E0.15938
G1 X109.906 Y63.953 E0.12502
G1 X110.241 Y64.888 E0.11494
G1 X110.541 Y65.915 E0.12372
G1 X110.774 Y66.948 E0.12256
G1 X110.943 Y67.993 E0.12250
G1 X111.047 Y69.062 E0.12425
G1 X111.085 Y70.212 E0.13311
G1 X111.049 Y71.285 E0.12420
G1 X110.949 Y72.340 E0.12257
G1 X110.780 Y73.398 E0.12397
G1 X110.549 Y74.434 E0.12275
G1 X110.245 Y75.478 E0.12578
G1 X109.881 Y76.489 E0.12433
G1 X109.448 Y77.487 E0.12587
G1 X108.945 Y78.468 E0.12749
G1 X108.381 Y79.412 E0.12721
G1 X107.806 Y80.253 E0.11788
G1 X107.510 Y80.628 E0.05530
G1 X107.510 Y85.937 E0.61416
G1 X107.212 Y87.131 E0.14235
G1 X106.573 Y88.200 E0.14410
G1 X105.700 Y89.048 E0.14073
G1 X104.647 Y89.623 E0.13884
G1 X103.504 Y89.874 E0.13536
G1 X94.198 Y89.874 E1.07661
G1 X94.005 Y89.845 E0.02256
G1 X93.812 Y89.874 E0.02256
G1 X84.428 Y89.874 E1.08567
G1 X83.235 Y89.576 E0.14219
G1 X82.251 Y89.005 E0.13165
G1 X81.433 Y88.219 E0.13122
G1 X80.721 Y86.930 E0.17036
M204 S266
G1 X81.723 Y87.963 F10800.000
M204 S333
G1 F1200.000
G1 X81.045 Y86.719 E0.16399
G1 X80.888 Y85.974 E0.08805
G1 X80.877 Y80.495 E0.63387
G1 X80.500 Y80.018 E0.07031
G1 X79.913 Y79.157 E0.12059
G1 X79.365 Y78.231 E0.12442
G1 X78.882 Y77.283 E0.12312
G1 X78.471 Y76.329 E0.12014
G1 X78.116 Y75.341 E0.12143
G1 X77.827 Y74.346 E0.11992
G1 X77.600 Y73.336 E0.11970
G1 X77.434 Y72.291 E0.12248
G1 X77.334 Y71.235 E0.12270
G1 X77.301 Y70.174 E0.12277
G1 X77.335 Y69.126 E0.12134
G1 X77.435 Y68.081 E0.12138
G1 X77.600 Y67.045 E0.12137
G1 X77.830 Y66.018 E0.12174
G1 X78.136 Y64.976 E0.12564
G1 X78.451 Y64.098 E0.10792
G1 X78.939 Y63.300 E0.10823
G1 X79.925 Y62.429 E0.15214
G1 X80.795 Y62.017 E0.11144
G1 X81.680 Y61.805 E0.10527
G1 X82.725 Y61.831 E0.12096
G1 X83.360 Y62.029 E0.07687
G1 X84.039 Y61.214 E0.12269
G1 X84.274 Y60.974 E0.03886
G1 X84.037 Y60.514 E0.05988
G1 X83.838 Y59.787 E0.08713
G1 X83.826 Y58.621 E0.13499
G1 X84.244 Y57.249 E0.16587
G1 X84.803 Y56.431 E0.11459
G1 X85.544 Y55.789 E0.11348
G1 X86.789 Y55.128 E0.16304
G1 X87.782 Y54.691 E0.12548
G1 X88.819 Y54.315 E0.12767
G1 X89.876 Y54.008 E0.12732
G1 X90.851 Y53.790 E0.11562
G1 X91.849 Y53.630 E0.11694
G1 X92.912 Y53.526 E0.12354
G1 X93.728 Y53.507 E0.09444
G1 X94.018 Y53.548 E0.03383
G1 X94.349 Y53.503 E0.03865
G1 X95.013 Y53.521 E0.07685
G1 X96.062 Y53.618 E0.12182
G1 X97.097 Y53.780 E0.12123
G1 X98.120 Y54.007 E0.12126
G1 X99.129 Y54.298 E0.12142
G1 X100.142 Y54.661 E0.12450
G1 X101.119 Y55.084 E0.12315
G1 X102.786 Y56.026 E0.22150
G1 X103.311 Y56.568 E0.08734
G1 X103.761 Y57.256 E0.09514
G1 X104.182 Y58.685 E0.17228
G1 X104.169 Y59.738 E0.12183
G1 X103.982 Y60.464 E0.08676
G1 X103.729 Y60.962 E0.06455
G1 X104.416 Y61.748 E0.12076
G1 X104.623 Y62.025 E0.03997
G1 X105.179 Y61.848 E0.06748
G1 X106.263 Y61.800 E0.12551
G1 X107.145 Y61.994 E0.10449
G1 X108.116 Y62.456 E0.12447
G1 X109.061 Y63.301 E0.14658
G1 X109.550 Y64.101 E0.10851
G1 X109.873 Y65.002 E0.11071
G1 X110.166 Y66.006 E0.12097
G1 X110.394 Y67.016 E0.11980
G1 X110.560 Y68.037 E0.11972
G1 X110.662 Y69.081 E0.12136
G1 X110.699 Y70.219 E0.13164
G1 X110.664 Y71.267 E0.12130
G1 X110.565 Y72.297 E0.11980
G1 X110.403 Y73.320 E0.11982
G1 X110.177 Y74.332 E0.11996
G1 X109.881 Y75.353 E0.12296
G1 X109.524 Y76.341 E0.12151
G1 X109.101 Y77.317 E0.12302
G1 X108.610 Y78.276 E0.12462
G1 X108.060 Y79.199 E0.12440
G1 X107.492 Y80.030 E0.11638
G1 X107.124 Y80.494 E0.06849
G1 X107.124 Y85.912 E0.62688
G1 X106.845 Y87.007 E0.13067
G1 X106.257 Y87.978 E0.13134
G1 X105.453 Y88.751 E0.12906
G1 X104.489 Y89.270 E0.12666
G1 X103.484 Y89.488 E0.11897
G1 X94.215 Y89.488 E1.07228
G1 X94.005 Y89.454 E0.02460
G1 X93.795 Y89.488 E0.02460
G1 X84.452 Y89.488 E1.08086
G1 X83.358 Y89.210 E0.13064
G1 X82.467 Y88.685 E0.11956
G1 X81.766 Y88.005 E0.11301
M204 S266
G1 X82.013 Y87.708 F10800.000
M204 S333
G1 F1200.000
G1 X81.416 Y86.610 E0.14470
G1 X81.273 Y85.952 E0.07783
G1 X81.262 Y80.360 E0.64697
G1 X80.814 Y79.795 E0.08339
G1 X80.242 Y78.955 E0.11766
G1 X79.706 Y78.051 E0.12157
G1 X79.234 Y77.124 E0.12030
G1 X78.831 Y76.193 E0.11735
G1 X78.484 Y75.228 E0.11864
G1 X78.202 Y74.256 E0.11713
G1 X77.978 Y73.258 E0.11830
G1 X77.817 Y72.248 E0.11827
G1 X77.719 Y71.217 E0.11987
G1 X77.687 Y70.180 E0.11994
G1 X77.720 Y69.156 E0.11854
G1 X77.816 Y68.136 E0.11857
G1 X77.977 Y67.124 E0.11857
G1 X78.202 Y66.121 E0.11888
G1 X78.504 Y65.090 E0.12423
G1 X78.807 Y64.248 E0.10352
G1 X79.252 Y63.527 E0.09802
G1 X80.115 Y62.766 E0.13305
G1 X80.942 Y62.374 E0.10590
G1 X81.743 Y62.186 E0.09519
G1 X82.684 Y62.216 E0.10895
G1 X83.513 Y62.486 E0.10087
G1 X83.812 Y62.079 E0.05845
G1 X84.328 Y61.470 E0.09238
G1 X84.748 Y61.042 E0.06935
G1 X84.403 Y60.390 E0.08529
G1 X84.217 Y59.709 E0.08172
G1 X84.204 Y58.702 E0.11653
G1 X84.580 Y57.439 E0.15243
G1 X85.076 Y56.704 E0.10258
G1 X85.745 Y56.119 E0.10281
G1 X86.963 Y55.472 E0.15957
G1 X87.931 Y55.047 E0.12229
G1 X88.933 Y54.683 E0.12329
G1 X89.966 Y54.383 E0.12447
G1 X90.930 Y54.168 E0.11424
G1 X91.904 Y54.011 E0.11422
G1 X92.942 Y53.910 E0.12062
G1 X93.719 Y53.893 E0.08992
G1 X94.016 Y53.938 E0.03474
G1 X94.356 Y53.889 E0.03967
G1 X94.996 Y53.907 E0.07414
G1 X96.020 Y54.002 E0.11893
G1 X97.020 Y54.158 E0.11706
G1 X98.020 Y54.379 E0.11847
G1 X99.005 Y54.663 E0.11859
G1 X99.994 Y55.017 E0.12164
G1 X100.957 Y55.434 E0.12132
G1 X102.530 Y56.316 E0.20864
G1 X102.999 Y56.795 E0.07755
G1 X103.422 Y57.443 E0.08951
G1 X103.804 Y58.764 E0.15906
G1 X103.790 Y59.664 E0.10412
G1 X103.614 Y60.345 E0.08147
G1 X103.252 Y61.040 E0.09057
G1 X103.606 Y61.397 E0.05812
G1 X104.119 Y61.993 E0.09105
G1 X104.481 Y62.481 E0.07027
G1 X105.226 Y62.232 E0.09097
G1 X106.207 Y62.182 E0.11362
G1 X107.002 Y62.353 E0.09404
G1 X107.883 Y62.765 E0.11245
G1 X108.748 Y63.528 E0.13353
G1 X109.194 Y64.251 E0.09819
G1 X109.508 Y65.127 E0.10766
G1 X109.794 Y66.108 E0.11826
G1 X110.017 Y67.095 E0.11702
G1 X110.178 Y68.093 E0.11695
G1 X110.278 Y69.112 E0.11855
G1 X110.313 Y70.212 E0.12729
G1 X110.280 Y71.236 E0.11850
G1 X110.184 Y72.243 E0.11702
G1 X110.025 Y73.242 E0.11706
G1 X109.805 Y74.231 E0.11717
G1 X109.516 Y75.228 E0.12015
G1 X109.168 Y76.194 E0.11869
G1 X108.755 Y77.147 E0.12017
G1 X108.276 Y78.084 E0.12174
G1 X107.738 Y78.987 E0.12159
G1 X107.177 Y79.806 E0.11487
G1 X106.738 Y80.359 E0.08166
G1 X106.738 Y85.887 E0.63955
G1 X106.480 Y86.882 E0.11890
G1 X105.970 Y87.719 E0.11336
G1 X105.244 Y88.426 E0.11729
G1 X104.378 Y88.900 E0.11420
G1 X103.462 Y89.103 E0.10846
G1 X94.233 Y89.103 E1.06765
G1 X94.005 Y89.062 E0.02685
G1 X93.777 Y89.103 E0.02685
G1 X84.477 Y89.103 E1.07581
G1 X83.483 Y88.844 E0.11889
G1 X82.686 Y88.367 E0.10744
G1 X82.056 Y87.750 E0.10193
M204 S266
G1 X82.305 Y87.455 F10800.000
M204 S333
G1 F1200.000
G1 X81.786 Y86.499 E0.12581
G1 X81.659 Y85.930 E0.06747
G1 X81.648 Y80.225 E0.66000
G1 X81.129 Y79.572 E0.09648
G1 X80.570 Y78.753 E0.11473
G1 X80.046 Y77.870 E0.11872
G1 X79.585 Y76.965 E0.11748
G1 X79.192 Y76.056 E0.11455
G1 X78.853 Y75.114 E0.11584
G1 X78.574 Y74.154 E0.11572
G1 X78.356 Y73.179 E0.11550
G1 X78.199 Y72.194 E0.11547
G1 X78.104 Y71.186 E0.11706
G1 X78.072 Y70.186 E0.11574
G1 X78.104 Y69.186 E0.11574
G1 X78.198 Y68.190 E0.11577
G1 X78.355 Y67.202 E0.11577
G1 X78.574 Y66.223 E0.11603
G1 X78.869 Y65.215 E0.12147
G1 X79.163 Y64.399 E0.10041
G1 X79.564 Y63.756 E0.08769
G1 X80.304 Y63.103 E0.11413
G1 X81.089 Y62.731 E0.10048
G1 X81.756 Y62.572 E0.07937
G1 X82.642 Y62.600 E0.10253
G1 X83.656 Y62.943 E0.12385
G1 X84.111 Y62.323 E0.08898
G1 X84.618 Y61.725 E0.09073
G1 X85.224 Y61.109 E0.09996
G1 X84.769 Y60.267 E0.11071
G1 X84.595 Y59.631 E0.07629
G1 X84.583 Y58.781 E0.09829
G1 X84.918 Y57.627 E0.13905
G1 X85.351 Y56.975 E0.09054
G1 X85.946 Y56.448 E0.09192
G1 X87.138 Y55.816 E0.15602
G1 X88.080 Y55.403 E0.11907
G1 X89.058 Y55.048 E0.12038
G1 X90.056 Y54.758 E0.12018
G1 X90.997 Y54.548 E0.11150
G1 X91.960 Y54.393 E0.11284
G1 X92.972 Y54.295 E0.11768
G1 X93.709 Y54.279 E0.08526
G1 X94.014 Y54.328 E0.03577
G1 X94.363 Y54.275 E0.04085
G1 X94.979 Y54.292 E0.07131
G1 X95.978 Y54.385 E0.11603
G1 X96.954 Y54.538 E0.11427
G1 X97.930 Y54.754 E0.11568
G1 X98.892 Y55.032 E0.11579
G1 X99.847 Y55.374 E0.11738
G1 X100.795 Y55.784 E0.11954
G1 X102.276 Y56.607 E0.19597
G1 X102.687 Y57.022 E0.06760
G1 X103.083 Y57.628 E0.08374
G1 X103.425 Y58.840 E0.14565
G1 X103.411 Y59.589 E0.08663
G1 X103.247 Y60.226 E0.07616
G1 X102.777 Y61.109 E0.11563
G1 X103.318 Y61.653 E0.08879
G1 X103.822 Y62.239 E0.08941
G1 X104.340 Y62.940 E0.10078
G1 X105.277 Y62.615 E0.11469
G1 X106.155 Y62.565 E0.10172
G1 X106.860 Y62.712 E0.08331
G1 X107.694 Y63.102 E0.10661
G1 X108.436 Y63.756 E0.11441
G1 X108.838 Y64.401 E0.08783
G1 X109.143 Y65.251 E0.10455
G1 X109.423 Y66.210 E0.11554
G1 X109.639 Y67.173 E0.11424
G1 X109.796 Y68.148 E0.11418
G1 X109.893 Y69.144 E0.11574
